X: 20451
T: MISS GRAHAM OF INCHBRACKIE
%R: strathspey
B: "Edinburgh Repository of Music" v.2 p.45 #1
F: http://digital.nls.uk/special-collections-of-printed-music/pageturner.cfm?id=87776133
Z: 2015 John Chambers <jc:trillian.mit.edu>
M: C
L: 1/16
K: D
%%slurgraces
%%graceslurs
A2 |\
d3e {de}f3e d3BA3F | D2A2 ({e}d2cd) e2E2E2A2 |\
d3e {de}f3e {c}d3BA3F | A3A B3c {c}d4 d2 |]\
(fg) |\
a3b {b}a2gf .d'2.a2.f2.d2 | .g2(bg) .f2(af) e2d2e2f2 |
a3b {b}a2(gf) .d'2.a2.f2.d2 | g3ef3c {c}d4 d2f2 |\
a3b ({b}a2gf) d'2a2f2d2 | (gbag) (fagf) e3de2f2 |\
A3d{d}f3e d3B (BA).G.F | A3A B3c {c}d4- d2 |]

%%sep 2 1 500
%%sep 1 1 500

